latex_in_markdown/.watch-latex-md-images/fa26a6baa727f8bcfb6506e0e2ff527c.svg

<ns0:svg xmlns:ns0="http://www.w3.org/2000/svg" xmlns:ns1="http://www.w3.org/1999/xlink" height="17.2154pt" version="1.1" viewBox="23.686 61.8082 65.5354 17.2154" width="65.5354pt" watch_lated_md:baseline="4.303799999999992" xmlns:watch_lated_md="https://github.com/Quansight/pearu-sandbox/latex_in_markdown/">
<ns0:defs>
<ns0:path d="m7.38542 -12.2746c0 -0.0172154 0.103293 -0.275447 0.103293 -0.309878c0 -0.206585 -0.172154 -0.327093 -0.309878 -0.327093c-0.0860772 0 -0.241016 0 -0.37874 0.37874l-5.76717 16.1997c0 0.0172154 -0.103293 0.275447 -0.103293 0.309878c0 0.206585 0.172154 0.327093 0.309878 0.327093c0.103293 0 0.258232 -0.0172154 0.37874 -0.37874l5.76717 -16.1997z" id="g0-61" />
<ns0:path d="m3.97677 -11.5171c0.0172154 -0.0688618 0.0516463 -0.172154 0.0516463 -0.258232c0 -0.172154 -0.172154 -0.172154 -0.206585 -0.172154c-0.0172154 0 -0.636971 0.0516463 -0.946849 0.0860772c-0.292662 0.0172154 -0.550894 0.0516463 -0.860772 0.0688618c-0.413171 0.0344309 -0.533679 0.0516463 -0.533679 0.361524c0 0.172154 0.172154 0.172154 0.344309 0.172154c0.877987 0 0.877987 0.154939 0.877987 0.327093c0 0.120508 -0.137724 0.619756 -0.206585 0.929634l-0.413171 1.65268c-0.172154 0.688618 -1.15343 4.59652 -1.2223 4.9064c-0.0860772 0.430386 -0.0860772 0.723049 -0.0860772 0.946849c0 1.75597 0.98128 2.66839 2.10028 2.66839c1.99699 0 4.06284 -2.5651 4.06284 -5.06134c0 -1.58382 -0.895203 -2.70282 -2.18636 -2.70282c-0.895203 0 -1.70433 0.740264 -2.03142 1.08457l1.25673 -5.00969zm-1.08457 11.345c-0.550894 0 -1.15343 -0.413171 -1.15343 -1.75597c0 -0.56811 0.0516463 -0.895203 0.361524 -2.10028c0.0516463 -0.223801 0.327093 -1.32559 0.395955 -1.54939c0.0344309 -0.137724 1.05014 -1.6699 2.22079 -1.6699c0.757479 0 1.10179 0.757479 1.10179 1.65268c0 0.826341 -0.482032 2.77169 -0.912418 3.66689c-0.430386 0.929634 -1.2223 1.75597 -2.01421 1.75597z" id="g0-98" />
<ns0:path d="m2.85776 -0.705833c0 -0.430386 -0.344309 -0.705833 -0.705833 -0.705833c-0.344309 0 -0.705833 0.275447 -0.705833 0.705833s0.344309 0.705833 0.705833 0.705833c0.344309 0 0.705833 -0.275447 0.705833 -0.705833z" id="g1-46" />
<ns0:path d="m5.78439 -11.1384c0 -0.361524 -0.0172154 -0.37874 -0.327093 -0.37874l-5.11299 8.1429v0.447601h4.44158v1.68711c0 0.619756 -0.0344309 0.79191 -1.23951 0.79191h-0.327093v0.447601c0.550894 -0.0344309 1.48053 -0.0344309 2.06585 -0.0344309s1.51496 0 2.06585 0.0344309v-0.447601h-0.327093c-1.20508 0 -1.23951 -0.172154 -1.23951 -0.79191v-1.68711h1.75597v-0.447601h-1.75597v-7.76416zm-0.946849 1.13622v6.62794h-4.14892l4.14892 -6.62794z" id="g1-52" />
<ns0:path d="m6.05984 -5.09577c0 3.7874 -1.56661 4.95805 -2.85776 4.95805c-0.395955 0 -1.36002 -0.0516463 -1.75597 -0.723049c0.447601 0.0688618 0.774695 -0.172154 0.774695 -0.60254c0 -0.464817 -0.37874 -0.619756 -0.619756 -0.619756c-0.154939 0 -0.619756 0.0688618 -0.619756 0.654187c0 1.17065 1.01571 1.70433 2.25522 1.70433c1.97978 0 3.99398 -2.16915 3.99398 -5.95654c0 -4.71703 -1.92813 -5.69831 -3.2365 -5.69831c-1.70433 0 -3.3398 1.49774 -3.3398 3.80461c0 2.13471 1.39445 3.71854 3.15043 3.71854c1.4461 0 2.08307 -1.3428 2.25522 -1.91091v0.671402zm-2.22079 0.964065c-0.464817 0 -1.119 -0.0860772 -1.65268 -1.119c-0.361524 -0.671402 -0.361524 -1.46331 -0.361524 -2.30687c0 -1.01571 0 -1.72154 0.482032 -2.47902c0.241016 -0.361524 0.688618 -0.946849 1.68711 -0.946849c2.03142 0 2.03142 3.11599 2.03142 3.80461c0 1.2223 -0.550894 3.04713 -2.18636 3.04713z" id="g1-57" />
<ns0:path d="m11.0695 -5.52616c0.258232 0 0.516463 0 0.516463 -0.292662c0 -0.309878 -0.292662 -0.309878 -0.585325 -0.309878h-9.62343c-0.292662 0 -0.585325 0 -0.585325 0.309878c0 0.292662 0.258232 0.292662 0.516463 0.292662h9.76115zm-0.0688618 3.06435c0.292662 0 0.585325 0 0.585325 -0.309878c0 -0.292662 -0.258232 -0.292662 -0.516463 -0.292662h-9.76115c-0.258232 0 -0.516463 0 -0.516463 0.292662c0 0.309878 0.292662 0.309878 0.585325 0.309878h9.62343z" id="g1-61" />
</ns0:defs>
<ns0:g id="page1">
<ns0:use x="27.9837" ns1:href="#g0-98" y="74.7198" />
<ns0:use x="39.9327" ns1:href="#g1-61" y="74.7198" />
<ns0:use x="57.1071" ns1:href="#g1-52" y="74.7198" />
<ns0:use x="65.0024" ns1:href="#g1-57" y="74.7198" />
<ns0:use x="72.8977" ns1:href="#g0-61" y="74.7198" />
<ns0:use x="81.326" ns1:href="#g1-52" y="74.7198" />
</ns0:g>
</ns0:svg>

<ns0:svg xmlns:ns0="http://www.w3.org/2000/svg" xmlns:ns1="http://www.w3.org/1999/xlink" height="17.2154pt" version="1.1" viewBox="23.686 61.8082 65.5354 17.2154" width="65.5354pt" watch_lated_md:baseline="4.303799999999992" xmlns:watch_lated_md="https://github.com/Quansight/pearu-sandbox/latex_in_markdown/">
<ns0:defs>
<ns0:path d="M7.38542 -12.2746C7.38542 -12.2918 7.48872 -12.5501 7.48872 -12.5845C7.48872 -12.7911 7.31656 -12.9116 7.17884 -12.9116C7.09276 -12.9116 6.93782 -12.9116 6.8001 -12.5328L1.03293 3.66689C1.03293 3.6841 0.929634 3.94234 0.929634 3.97677C0.929634 4.18335 1.10179 4.30386 1.23951 4.30386C1.3428 4.30386 1.49774 4.28664 1.61825 3.92512L7.38542 -12.2746Z" id="g0-61" />
<ns0:path d="M3.97677 -11.5171C3.99398 -11.586 4.02841 -11.6893 4.02841 -11.7754C4.02841 -11.9475 3.85626 -11.9475 3.82183 -11.9475C3.80461 -11.9475 3.18486 -11.8959 2.87498 -11.8614C2.58232 -11.8442 2.32408 -11.8098 2.01421 -11.7926C1.60104 -11.7581 1.48053 -11.7409 1.48053 -11.4311C1.48053 -11.2589 1.65268 -11.2589 1.82484 -11.2589C2.70282 -11.2589 2.70282 -11.104 2.70282 -10.9318C2.70282 -10.8113 2.5651 -10.312 2.49624 -10.0022L2.08307 -8.34949C1.91091 -7.66087 0.929634 -3.75297 0.860772 -3.44309C0.774695 -3.0127 0.774695 -2.72004 0.774695 -2.49624C0.774695 -0.740264 1.75597 0.172154 2.87498 0.172154C4.87197 0.172154 6.93782 -2.39295 6.93782 -4.88919C6.93782 -6.47301 6.04262 -7.59201 4.75146 -7.59201C3.85626 -7.59201 3.04713 -6.85175 2.72004 -6.50744L3.97677 -11.5171ZM2.89219 -0.172154C2.3413 -0.172154 1.73876 -0.585325 1.73876 -1.92813C1.73876 -2.49624 1.79041 -2.82333 2.10028 -4.02841C2.15193 -4.25221 2.42738 -5.354 2.49624 -5.5778C2.53067 -5.71553 3.54638 -7.2477 4.71703 -7.2477C5.47451 -7.2477 5.81882 -6.49022 5.81882 -5.59502C5.81882 -4.76868 5.33679 -2.82333 4.9064 -1.92813C4.47601 -0.998496 3.6841 -0.172154 2.89219 -0.172154Z" id="g0-98" />
<ns0:path d="M2.85776 -0.705833C2.85776 -1.13622 2.51345 -1.41167 2.15193 -1.41167C1.80762 -1.41167 1.4461 -1.13622 1.4461 -0.705833S1.79041 0 2.15193 0C2.49624 0 2.85776 -0.275447 2.85776 -0.705833Z" id="g1-46" />
<ns0:path d="M5.78439 -11.1384C5.78439 -11.4999 5.76717 -11.5171 5.45729 -11.5171L0.344309 -3.37423V-2.92662H4.78589V-1.23951C4.78589 -0.619756 4.75146 -0.447601 3.54638 -0.447601H3.21929V0C3.77018 -0.0344309 4.69982 -0.0344309 5.28514 -0.0344309S6.8001 -0.0344309 7.35099 0V-0.447601H7.0239C5.81882 -0.447601 5.78439 -0.619756 5.78439 -1.23951V-2.92662H7.54036V-3.37423H5.78439V-11.1384ZM4.83754 -10.0022V-3.37423H0.688618L4.83754 -10.0022Z" id="g1-52" />
<ns0:path d="M6.05984 -5.09577C6.05984 -1.30837 4.49323 -0.137724 3.20207 -0.137724C2.80612 -0.137724 1.84205 -0.18937 1.4461 -0.860772C1.8937 -0.79191 2.22079 -1.03293 2.22079 -1.46331C2.22079 -1.92813 1.84205 -2.08307 1.60104 -2.08307C1.4461 -2.08307 0.98128 -2.01421 0.98128 -1.42888C0.98128 -0.258232 1.99699 0.275447 3.2365 0.275447C5.21628 0.275447 7.23049 -1.8937 7.23049 -5.6811C7.23049 -10.3981 5.30236 -11.3794 3.99398 -11.3794C2.28965 -11.3794 0.654187 -9.88166 0.654187 -7.57479C0.654187 -5.44008 2.04864 -3.85626 3.80461 -3.85626C5.25071 -3.85626 5.88768 -5.19906 6.05984 -5.76717V-5.09577ZM3.83904 -4.13171C3.37423 -4.13171 2.72004 -4.21778 2.18636 -5.25071C1.82484 -5.92211 1.82484 -6.71402 1.82484 -7.55758C1.82484 -8.57329 1.82484 -9.27912 2.30687 -10.0366C2.54789 -10.3981 2.99549 -10.9835 3.99398 -10.9835C6.0254 -10.9835 6.0254 -7.86746 6.0254 -7.17884C6.0254 -5.95654 5.47451 -4.13171 3.83904 -4.13171Z" id="g1-57" />
<ns0:path d="M11.0695 -5.52616C11.3278 -5.52616 11.586 -5.52616 11.586 -5.81882C11.586 -6.1287 11.2933 -6.1287 11.0007 -6.1287H1.37724C1.08457 -6.1287 0.79191 -6.1287 0.79191 -5.81882C0.79191 -5.52616 1.05014 -5.52616 1.30837 -5.52616H11.0695ZM11.0007 -2.46181C11.2933 -2.46181 11.586 -2.46181 11.586 -2.77169C11.586 -3.06435 11.3278 -3.06435 11.0695 -3.06435H1.30837C1.05014 -3.06435 0.79191 -3.06435 0.79191 -2.77169C0.79191 -2.46181 1.08457 -2.46181 1.37724 -2.46181H11.0007Z" id="g1-61" />
</ns0:defs>
<ns0:g id="page1">
<ns0:use x="27.9837" ns1:href="#g0-98" y="74.7198" />
<ns0:use x="39.9327" ns1:href="#g1-61" y="74.7198" />
<ns0:use x="57.1071" ns1:href="#g1-52" y="74.7198" />
<ns0:use x="65.0024" ns1:href="#g1-57" y="74.7198" />
<ns0:use x="72.8977" ns1:href="#g0-61" y="74.7198" />
<ns0:use x="81.326" ns1:href="#g1-52" y="74.7198" />
</ns0:g>
</ns0:svg>
